!!!OTL: 440. Das Finkenrartsel.
!!!COM: B.
!!!ARE: Europa, Mitteleuropa, Deutschland
!!!SCT: B0440
!!!TXL: @@DE
!!!YEM: Copyright 1995, estate of Helmut Schaffrath.
**kern	**text
*ICvox	*
*Ivox	*
*M6/8	*
*k[f#]	*
*G:	*
!LO:TX:a:t=Sanftwiegend.	!
{8g	Jm
=1	=1
4.g	Mai-
4d	-en,
8b	im
=2	=2
4.b	Mai-
4g}	-en
{16bL	blühn
16ccJ	.
=3	=3
4dd	ſü-
8ee	-ße
4cc	Blü-
8dd	-me-
=4	=4
[4.b	-lein.
8b]	.
8r}	.
{8g	Jch
=5	=5
4f#	fand
8a	ein
4g	Blümlein,
8b	.
=6	=6
8aL	weiß
8ddJ	.
8cc	wie
4b}	Schnee,
{8a	das
=7	=7
4g#	thut
8b	ſo
4a	wohl,
8cc	das
=8	=8
8bL	thut
8eeJ	.
8dd	ſo
4cc}	weh
{8ee	im
=9	=9
(4.dd	Mai-
(<4a)	.
8b)	.
=10	=10
4g	-en.
8r	.
4r}	.
==	==
!!!AGN: Liebes - Lied, Liebes - Lust, Fruehling
!!!GTL: Liebeslieder - Liebeslust
!!!ONB: ESAC (Essen Associative Code) Database: BOEHME
!!!AMT: compound duple
!!!AIN: vox
!!!EED: Helmut Schaffrath
!!!EEV: 1.0
!!!RDF**kern: < = below
!!@@COMMENT:"Gedicht von E. M. Arndt. Die Mel. von Silcher 1827 in deſſen Männergeſang" III, Nr. 1 wurde nicht populär."
!!@@END:
!!!Text: E. M. Arndt
!!!URL-scan: https://archive.org/details/BoehmeVtLieder1895/page/n357/mode/2up
!!!ENC: Anna Maria Matuszewska
!!!EEV: 2024/09/07
*-	*-
